packages/bezier-icons/icons/email.svg

<svg width="24" height="24" viewBox="0 0 24 24" fill="none" xmlns="http://www.w3.org/2000/svg">
<path fill-rule="evenodd" clip-rule="evenodd" d="M2.00164 9.43906C1.99939 9.47614 1.99923 9.51318 2.00111 9.55C2.00003 9.81424 2.00003 10.0969 2.00003 10.4V13.6C2.00003 15.8402 2.00003 16.9603 2.436 17.816C2.8195 18.5686 3.43142 19.1805 4.18407 19.564C5.03972 20 6.15982 20 8.40003 20H15.6C17.8402 20 18.9603 20 19.816 19.564C20.5686 19.1805 21.1806 18.5686 21.5641 17.816C22 16.9603 22 15.8402 22 13.6V10.4C22 10.0969 22 9.81438 21.999 9.5502C22.0008 9.51325 22.0007 9.47608 21.9984 9.43886C21.9896 7.82004 21.9327 6.90751 21.5641 6.18404C21.1806 5.43139 20.5686 4.81947 19.816 4.43597C18.9603 4 17.8402 4 15.6 4H8.40003C6.15982 4 5.03972 4 4.18407 4.43597C3.43142 4.81947 2.8195 5.43139 2.436 6.18404C2.06736 6.90754 2.01043 7.82012 2.00164 9.43906ZM8.40003 6H15.6C16.7531 6 17.4977 6.00156 18.0644 6.04785C18.6077 6.09225 18.8091 6.1676 18.908 6.21799C19.2843 6.40973 19.5903 6.71569 19.782 7.09202C19.8324 7.19091 19.9078 7.39235 19.9522 7.93567C19.9741 8.20423 19.986 8.51274 19.9925 8.88576L12.4473 12.6584C12.1657 12.7991 11.8344 12.7991 11.5528 12.6584L4.00761 8.88575C4.01405 8.51274 4.02594 8.20423 4.04789 7.93567C4.09228 7.39235 4.16763 7.19091 4.21802 7.09202C4.40976 6.71569 4.71573 6.40973 5.09205 6.21799C5.19094 6.1676 5.39238 6.09225 5.9357 6.04785C6.50238 6.00156 7.24692 6 8.40003 6ZM20 11.118V13.6C20 14.7531 19.9985 15.4977 19.9522 16.0643C19.9078 16.6077 19.8324 16.8091 19.782 16.908C19.5903 17.2843 19.2843 17.5903 18.908 17.782C18.8091 17.8324 18.6077 17.9078 18.0644 17.9521C17.4977 17.9984 16.7531 18 15.6 18H8.40003C7.24692 18 6.50238 17.9984 5.9357 17.9521C5.39238 17.9078 5.19094 17.8324 5.09205 17.782C4.71573 17.5903 4.40976 17.2843 4.21802 16.908C4.16763 16.8091 4.09228 16.6077 4.04789 16.0643C4.00159 15.4977 4.00003 14.7531 4.00003 13.6V11.118L10.6584 14.4472C11.503 14.8695 12.4971 14.8695 13.3417 14.4472L20 11.118Z" fill="#313234"/>
</svg>

<svg xmlns="http://www.w3.org/2000/svg" width="24" height="24" fill="none" viewBox="0 0 24 24"><path fill="#313234" fill-rule="evenodd" d="M2.002 9.44a1 1 0 0 0 0 .11Q2 9.946 2 10.4v3.2c0 2.24 0 3.36.436 4.216a4 4 0 0 0 1.748 1.748C5.04 20 6.16 20 8.4 20h7.2c2.24 0 3.36 0 4.216-.436a4 4 0 0 0 1.748-1.748C22 16.96 22 15.84 22 13.6v-3.2l-.001-.85a1 1 0 0 0 0-.111c-.01-1.619-.066-2.531-.435-3.255a4 4 0 0 0-1.748-1.748C18.96 4 17.84 4 15.6 4H8.4c-2.24 0-3.36 0-4.216.436a4 4 0 0 0-1.748 1.748c-.369.724-.426 1.636-.434 3.255M8.4 6h7.2c1.153 0 1.898.002 2.464.048.544.044.745.12.844.17a2 2 0 0 1 .874.874c.05.099.126.3.17.844.022.268.034.577.04.95l-7.545 3.772a1 1 0 0 1-.894 0L4.008 8.886c.006-.373.018-.682.04-.95.044-.544.12-.745.17-.844a2 2 0 0 1 .874-.874c.099-.05.3-.126.844-.17C6.502 6.002 7.246 6 8.4 6M20 11.118V13.6c0 1.153-.002 1.898-.048 2.464-.044.544-.12.745-.17.844a2 2 0 0 1-.874.874c-.099.05-.3.126-.844.17-.566.046-1.31.048-2.464.048H8.4c-1.153 0-1.898-.002-2.464-.048-.544-.044-.745-.12-.844-.17a2 2 0 0 1-.874-.874c-.05-.099-.126-.3-.17-.844C4.002 15.498 4 14.754 4 13.6v-2.482l6.658 3.33a3 3 0 0 0 2.684 0z" clip-rule="evenodd"/></svg>
